X: 1668
T: Molly In The Garden
M:2/4
L:1/16
B:O'Neill's 1668
N:"collected by J. O'Neill"
Z:1 beat to many in bar 12 of the original
K:G
d-c \
| BcABGAFA | EDGED2GA | B2GBc2Bc | dcBcA2dc |
| BcABGAFA | EDGED2G-A | cedcBA(3GAB | A2G2G2 :|
|: (3AGF \
| E2e2e2(3GFE | D2d2d2(3FED | C2c2c2A-B | cBAB cB(3AGF |
| E2e2e2(3GFE | D2d2d2e-f | gfef gfec | dcde dcBA :|
| BcABGAFA | EDGED2GA | B2GBc2Bc | dcBcA2dc |
| BcABGAFA | EDGED2G-A | cedcBA(3GAB | A2G2G2 |]


